science/organic/Progesteron.svg

<svg xmlns="http://www.w3.org/2000/svg" xmlns:cc="http://web.resource.org/cc/" xmlns:svg="http://www.w3.org/2000/svg" id="Layer_1" width="296.634" height="208.581" version="1.1" viewBox="0 0 296.634 208.581" style="overflow:visible;enable-background:new 0 0 296.634 208.581" xml:space="preserve"><metadata id="metadata126"/><path id="polygon3" d="M 48.64015,174.82185 L 47.0242,175.77185 L 47.0242,137.1078 L 48.64015,138.0578 L 48.64015,174.82185 z"/><path id="polygon5" d="M 80.5117,193.2053 L 80.5117,195.0578 L 47.0242,175.77185 L 48.64015,174.82185 L 80.5117,193.2053 z"/><path id="polygon7" d="M 112.3367,138.0578 L 113.1442,137.5828 L 113.95265,138.0578 L 113.95265,174.82185 L 113.1442,175.29685 L 112.3367,174.82185 L 112.3367,138.0578 z"/><path id="polygon9" d="M 80.5117,119.67435 L 80.5117,117.82185 L 112.24265,136.10935 L 113.1442,137.5828 L 112.3367,138.0578 L 80.5117,119.67435 z"/><path id="polygon11" d="M 48.64015,138.0578 L 47.0242,137.1078 L 80.5117,117.82185 L 80.5117,119.67435 L 48.64015,138.0578 z"/><path id="polygon13" d="M 145.77765,193.2053 L 145.77765,195.0578 L 113.1442,176.19935 L 113.1442,175.29685 L 113.95265,174.82185 L 145.77765,193.2053 z"/><path id="polygon15" d="M 177.65015,174.82185 L 179.2642,175.77185 L 145.77765,195.0578 L 145.77765,193.2053 L 177.65015,174.82185 z"/><path id="polygon17" d="M 177.65015,138.0578 L 178.4567,137.5828 L 179.2642,138.0578 L 179.2642,175.77185 L 177.65015,174.82185 L 177.65015,138.0578 z"/><path id="polygon19" d="M 145.77765,119.67435 L 145.77765,118.72435 L 146.58515,118.24935 L 177.46015,136.10935 L 178.4567,137.5828 L 177.65015,138.0578 L 145.77765,119.67435 z"/><path id="polygon21" d="M 210.2817,81.48435 L 211.0892,81.00935 L 211.89765,81.6278 L 211.89765,118.1553 L 211.0892,118.72435 L 210.2817,118.24935 L 210.2817,81.48435 z"/><path id="polygon23" d="M 178.4567,63.1028 L 178.4567,61.24935 L 210.18765,79.58435 L 211.0892,81.00935 L 210.2817,81.48435 L 178.4567,63.1028 z"/><path id="polygon25" d="M 146.58515,81.48435 L 144.9692,80.5828 L 178.4567,61.24935 L 178.4567,63.1028 L 146.58515,81.48435 z"/><path id="polygon27" d="M 146.58515,118.24935 L 145.77765,118.72435 L 144.9692,118.24935 L 144.9692,80.5828 L 146.58515,81.48435 L 146.58515,118.24935 z"/><path id="polygon29" d="M 109.4867,99.8678 L 116.75515,99.8678 L 114.04765,136.10935 L 113.1442,137.5828 L 112.24265,136.10935 L 109.4867,99.8678 z"/><g id="g31" transform="matrix(0.95,0,0,0.95,7.41585,5.21455)"><path id="path33" d="M 207.681,168.635 L 207.681,151.447 L 209.962,151.447 L 209.962,158.51 L 218.853,158.51 L 218.853,151.447 L 221.134,151.447 L 221.134,168.635 L 218.853,168.635 L 218.853,160.541 L 209.962,160.541 L 209.962,168.635 L 207.681,168.635 z"/></g><path id="polygon35" d="M 214.74765,146.9403 L 207.4317,146.9403 L 207.62265,145.32435 L 214.5567,145.32435 L 214.74765,146.9403 z"/><path id="polygon37" d="M 214.1767,142.4278 L 208.0017,142.4278 L 208.19265,140.81185 L 213.98765,140.81185 L 214.1767,142.4278 z"/><path id="polygon39" d="M 213.65515,137.9153 L 208.52515,137.9153 L 208.7142,136.29935 L 213.4642,136.29935 L 213.65515,137.9153 z"/><path id="polygon41" d="M 213.1317,133.4028 L 209.04765,133.4028 L 209.23765,131.78685 L 212.94265,131.78685 L 213.1317,133.4028 z"/><path id="polygon43" d="M 212.61015,128.8903 L 209.5692,128.8903 L 209.76015,127.27435 L 212.4192,127.27435 L 212.61015,128.8903 z"/><path id="polygon45" d="M 212.08765,124.3778 L 210.09265,124.3778 L 210.2817,122.76185 L 211.89765,122.76185 L 212.08765,124.3778 z"/><path id="polygon47" d="M 246.6192,129.41185 L 247.23765,131.31185 L 211.18515,119.6278 L 211.0892,118.72435 L 211.89765,118.1553 L 246.6192,129.41185 z"/><path id="polygon49" d="M 268.0892,99.8678 L 270.08515,99.8678 L 247.23765,131.31185 L 246.6192,129.41185 L 268.0892,99.8678 z"/><path id="polygon51" d="M 246.6192,70.32185 L 246.9517,69.37185 L 247.76015,69.13435 L 270.08515,99.8678 L 268.0892,99.8678 L 246.6192,70.32185 z"/><path id="polygon53" d="M 246.1442,32.1328 L 247.76015,31.2303 L 247.76015,69.13435 L 246.9517,69.37185 L 246.1442,68.8028 L 246.1442,32.1328 z"/><path id="polygon55" d="M 213.9392,13.55935 L 214.74765,12.13435 L 247.76015,31.2303 L 246.1442,32.1328 L 213.9392,13.55935 z"/><g id="g57" transform="matrix(0.95,0,0,0.95,7.41585,5.21455)"><path id="path59" d="M 278.25,9.119 C 278.25,6.266 279.016,4.034 280.547,2.421 C 282.081,0.807 284.057,0 286.481,0 C 288.067,0 289.498,0.379 290.772,1.137 C 292.045,1.896 293.016,2.952 293.685,4.308 C 294.354,5.664 294.688,7.202 294.688,8.92 C 294.688,10.663 294.336,12.222 293.632,13.597 C 292.928,14.972 291.932,16.014 290.643,16.721 C 289.352,17.428 287.961,17.782 286.469,17.782 C 284.85,17.782 283.405,17.391 282.131,16.61 C 280.856,15.829 279.891,14.761 279.235,13.41 C 278.579,12.059 278.25,10.628 278.25,9.119 z M 280.594,9.148 C 280.594,11.218 281.151,12.849 282.264,14.041 C 283.379,15.232 284.776,15.828 286.457,15.828 C 288.168,15.828 289.578,15.226 290.684,14.023 C 291.79,12.82 292.344,11.113 292.344,8.902 C 292.344,7.504 292.108,6.283 291.634,5.24 C 291.16,4.197 290.469,3.388 289.559,2.814 C 288.648,2.24 287.625,1.953 286.493,1.953 C 284.882,1.953 283.497,2.506 282.335,3.611 C 281.174,4.717 280.594,6.563 280.594,9.148 z"/></g><path id="polygon61" d="M 268.5167,15.0328 L 269.32515,16.4578 L 244.53015,30.7553 L 243.72265,29.3303 L 268.5167,15.0328 z"/><path id="polygon63" d="M 271.3192,19.92435 L 272.12765,21.34935 L 247.3317,35.64685 L 246.52515,34.22185 L 271.3192,19.92435 z"/><path id="polygon65" d="M 80.5117,195.0578 L 80.5117,193.2053 L 112.3367,174.82185 L 113.1442,175.29685 L 113.1442,176.19935 L 80.5117,195.0578 z"/><path id="polygon67" d="M 80.89265,188.31185 L 80.08515,186.88685 L 107.06515,171.3078 L 107.87265,172.7328 L 80.89265,188.31185 z"/><path id="polygon69" d="M 144.9692,118.24935 L 145.77765,118.72435 L 145.77765,119.67435 L 113.95265,138.0578 L 113.1442,137.5828 L 114.04765,136.10935 L 144.9692,118.24935 z"/><path id="polygon71" d="M 210.2817,118.24935 L 211.0892,118.72435 L 211.18515,119.6278 L 179.2642,138.0578 L 178.4567,137.5828 L 179.4067,136.10935 L 210.2817,118.24935 z"/><path id="polygon73" d="M 246.1442,68.8028 L 246.9517,69.37185 L 246.6192,70.32185 L 211.89765,81.6278 L 211.0892,81.00935 L 211.99265,79.8703 L 246.1442,68.8028 z"/><g id="g75" transform="matrix(0.95,0,0,0.95,7.41585,5.21455)"><path id="path77" d="M 0,199.919 C 0,197.066 0.766,194.834 2.298,193.221 C 3.83,191.607 5.808,190.8 8.231,190.8 C 9.818,190.8 11.248,191.179 12.522,191.937 C 13.796,192.696 14.767,193.752 15.436,195.108 C 16.105,196.464 16.438,198.002 16.438,199.72 C 16.438,201.463 16.086,203.022 15.383,204.397 C 14.68,205.772 13.683,206.814 12.393,207.521 C 11.103,208.228 9.712,208.582 8.219,208.582 C 6.601,208.582 5.155,208.191 3.881,207.41 C 2.607,206.629 1.642,205.561 0.985,204.21 C 0.328,202.859 0,201.428 0,199.919 z M 2.344,199.948 C 2.344,202.018 2.901,203.649 4.015,204.841 C 5.129,206.033 6.527,206.628 8.207,206.628 C 9.919,206.628 11.328,206.026 12.435,204.823 C 13.541,203.62 14.094,201.913 14.094,199.702 C 14.094,198.304 13.858,197.083 13.385,196.04 C 12.912,194.997 12.22,194.188 11.309,193.614 C 10.398,193.04 9.376,192.753 8.243,192.753 C 6.633,192.753 5.247,193.306 4.086,194.411 C 2.925,195.516 2.344,197.362 2.344,199.948 z"/></g><path id="polygon79" d="M 25.6492,192.3028 L 24.84265,190.8778 L 50.25515,176.19935 L 51.0617,177.62435 L 25.6492,192.3028 z"/><path id="polygon81" d="M 22.84765,187.40935 L 22.04015,185.98435 L 47.45265,171.3078 L 48.26015,172.7328 L 22.84765,187.40935 z"/><path id="polygon83" d="M 207.4317,43.3428 L 214.74765,43.3428 L 211.99265,79.8703 L 211.0892,81.00935 L 210.18765,79.58435 L 207.4317,43.3428 z"/><g id="g85" transform="matrix(0.95,0,0,0.95,7.41585,5.21455)"><path id="path87" d="M 283.181,64.734 L 283.181,47.547 L 285.462,47.547 L 285.462,54.61 L 294.353,54.61 L 294.353,47.547 L 296.634,47.547 L 296.634,64.735 L 294.353,64.735 L 294.353,56.641 L 285.462,56.641 L 285.462,64.735 L 283.181,64.735 L 283.181,64.734 z"/></g><path id="polygon89" d="M 271.41515,57.5928 L 273.6942,64.5278 L 272.0792,64.81185 L 269.9417,58.3053 L 271.41515,57.5928 z"/><path id="polygon91" d="M 267.5667,59.39685 L 269.4667,65.33435 L 267.85265,65.6203 L 266.0942,60.10935 L 267.5667,59.39685 z"/><path id="polygon93" d="M 263.67265,61.24935 L 265.2392,66.1428 L 263.67265,66.47435 L 262.20015,61.9153 L 263.67265,61.24935 z"/><path id="polygon95" d="M 259.7767,63.0553 L 261.06015,66.94935 L 259.4442,67.2828 L 258.3042,63.7203 L 259.7767,63.0553 z"/><path id="polygon97" d="M 255.8817,64.85935 L 256.8317,67.7578 L 255.2642,68.0903 L 254.41015,65.57185 L 255.8817,64.85935 z"/><path id="polygon99" d="M 252.03515,66.6653 L 252.6517,68.61185 L 251.03765,68.89685 L 250.56265,67.3778 L 252.03515,66.6653 z"/><g id="g101" transform="matrix(0.95,0,0,0.95,7.41585,5.21455)"><path id="path103" d="M 138.981,168.635 L 138.981,151.447 L 141.262,151.447 L 141.262,158.51 L 150.153,158.51 L 150.153,151.447 L 152.434,151.447 L 152.434,168.635 L 150.153,168.635 L 150.153,160.541 L 141.262,160.541 L 141.262,168.635 L 138.981,168.635 z"/></g><path id="polygon105" d="M 149.43515,146.9403 L 142.16765,146.9403 L 142.3567,145.32435 L 149.2442,145.32435 L 149.43515,146.9403 z"/><path id="polygon107" d="M 148.9117,142.4278 L 142.69015,142.4278 L 142.88015,140.81185 L 148.72265,140.81185 L 148.9117,142.4278 z"/><path id="polygon109" d="M 148.39015,137.9153 L 143.2117,137.9153 L 143.40265,136.29935 L 148.1992,136.29935 L 148.39015,137.9153 z"/><path id="polygon111" d="M 147.8192,133.4028 L 143.73515,133.4028 L 143.9242,131.78685 L 147.63015,131.78685 L 147.8192,133.4028 z"/><path id="polygon113" d="M 147.29765,128.8903 L 144.2567,128.8903 L 144.44765,127.27435 L 147.1067,127.27435 L 147.29765,128.8903 z"/><path id="polygon115" d="M 146.7742,124.3778 L 144.78015,124.3778 L 144.9692,122.76185 L 146.58515,122.76185 L 146.7742,124.3778 z"/><g id="g117" transform="matrix(0.95,0,0,0.95,7.41585,5.21455)"><path id="path119" d="M 173.331,109.085 L 173.331,91.897 L 175.612,91.897 L 175.612,98.96 L 184.503,98.96 L 184.503,91.897 L 186.784,91.897 L 186.784,109.085 L 184.503,109.085 L 184.503,100.991 L 175.612,100.991 L 175.612,109.085 L 173.331,109.085 L 173.331,109.085 z"/></g><path id="polygon121" d="M 174.80015,111.0303 L 182.06765,111.0303 L 179.4067,136.10935 L 178.4567,137.5828 L 177.46015,136.10935 L 174.80015,111.0303 z"/></svg>

<svg xmlns="http://www.w3.org/2000/svg" width="296.63" height="208.58" viewBox="0 0 296.63 208.58" xml:space="preserve" overflow="visible" enable-background="new 0 0 296.63 208.58"><path d="m48.64 174.822-1.616.95v-38.664l1.616.95zm31.872 18.383v1.853l-33.488-19.286 1.616-.95zm31.825-55.147.807-.475.809.475v36.764l-.809.475-.807-.475z"/><path d="M80.512 119.674v-1.852l31.73 18.287.902 1.474-.807.475zM48.64 138.058l-1.616-.95 33.488-19.286v1.852zm97.138 55.147v1.853l-32.634-18.859v-.902l.809-.475zm31.872-18.383 1.614.95-33.486 19.286v-1.853z"/><path d="m177.65 138.058.807-.475.807.475v37.714l-1.614-.95z"/><path d="M145.778 119.674v-.95l.807-.475 30.875 17.86.997 1.474-.807.475zm64.504-38.19.807-.475.809.619v36.527l-.809.57-.807-.476zm-31.825-18.381v-1.854l31.73 18.335.902 1.425-.807.475zm-31.872 18.381-1.616-.901 33.488-19.334v1.854z"/><path d="m146.585 118.25-.807.474-.809-.475V80.583l1.616.901zm-37.098-18.382h7.268l-2.707 36.241-.904 1.474-.901-1.474zm95.226 65.55v-16.329h2.167v6.71h8.446v-6.71h2.167v16.329h-2.167v-7.69h-8.446v7.69zm10.035-18.478h-7.316l.19-1.616h6.935zm-.571-4.512h-6.175l.19-1.616h5.796zm-.522-4.513h-5.13l.19-1.616h4.75zm-.523-4.512h-4.084l.19-1.616h3.705zm-.522-4.513h-3.04l.19-1.616h2.66zm-.522-4.512h-1.995l.189-1.616h1.616zm34.532 5.034.618 1.9-36.053-11.684-.096-.904.809-.569z"/><path d="M268.09 99.868h1.995l-22.847 31.444-.619-1.9zm-21.47-29.546.332-.95.808-.238 22.325 30.734h-1.996z"/><path d="m246.144 32.133 1.616-.903v37.904l-.808.238-.808-.57zM213.94 13.56l.808-1.426L247.76 31.23l-1.616.903zm57.813.318q0-4.065 2.183-6.363 2.184-2.3 5.637-2.3 2.26 0 4.076 1.08a7.07 7.07 0 0 1 2.768 3.012q.952 1.933.952 4.382 0 2.482-1.003 4.443t-2.84 2.967a8.1 8.1 0 0 1-3.965 1.008q-2.306 0-4.12-1.113a7.16 7.16 0 0 1-2.752-3.04 9.2 9.2 0 0 1-.936-4.076m2.227.027q0 2.95 1.587 4.649 1.588 1.696 3.983 1.697 2.438 0 4.016-1.715 1.576-1.713 1.577-4.865 0-1.992-.675-3.478t-1.971-2.305q-1.299-.818-2.913-.818-2.295 0-3.95 1.575-1.654 1.576-1.654 5.26"/><path d="m268.517 15.033.808 1.425-24.795 14.297-.807-1.425zm2.803 4.891.808 1.425-24.796 14.298-.807-1.425zM80.512 195.058v-1.853l31.825-18.383.807.475v.902zm.381-6.746-.808-1.425 26.98-15.58.808 1.426zm64.077-70.062.808.474v.95l-31.825 18.384-.809-.475.904-1.474zm65.312 0 .807.474.096.904-31.92 18.43-.808-.475.95-1.474zm35.862-49.447.808.569-.333.95-34.721 11.306-.809-.619.904-1.139zM7.416 195.138q0-4.065 2.183-6.364 2.183-2.3 5.636-2.3 2.261 0 4.077 1.08a7.07 7.07 0 0 1 2.768 3.013q.953 1.933.952 4.382 0 2.482-1.002 4.443t-2.84 2.967a8.1 8.1 0 0 1-3.966 1.008q-2.305 0-4.121-1.113a7.17 7.17 0 0 1-2.751-3.04 9.2 9.2 0 0 1-.936-4.076m2.227.027q0 2.95 1.587 4.649t3.983 1.697q2.439 0 4.016-1.715 1.576-1.713 1.576-4.865 0-1.993-.673-3.478-.675-1.487-1.973-2.305t-2.912-.818q-2.295 0-3.95 1.575-1.653 1.575-1.654 5.26m16.007-2.862-.807-1.425 25.412-14.679.807 1.425zm-2.802-4.893-.808-1.426 25.413-14.676.807 1.425z"/><path d="M207.432 43.343h7.316l-2.755 36.527-.904 1.14-.901-1.426zm69.006 23.369V50.384h2.167v6.71h8.446v-6.71h2.167v16.329h-2.167v-7.69h-8.446v7.69zm-5.023-9.119 2.28 6.935-1.616.284-2.137-6.507zm-3.848 1.804 1.9 5.937-1.614.286-1.759-5.51zm-3.894 1.853 1.566 4.893-1.566.331-1.473-4.559zm-3.896 1.805 1.283 3.894-1.616.334-1.14-3.563zm-3.895 1.805.95 2.898-1.568.332-.854-2.518zm-3.847 1.805.617 1.947-1.614.285-.475-1.52zm-112.587 98.753v-16.329h2.167v6.71h8.446v-6.71h2.167v16.329h-2.167v-7.69h-8.446v7.69zm9.987-18.478h-7.267l.189-1.616h6.887zm-.523-4.512h-6.222l.19-1.616h5.843zm-.522-4.513h-5.178l.19-1.616h4.797zm-.57-4.512h-4.085l.19-1.616h3.705zm-.522-4.513h-3.041l.19-1.616h2.66zm-.524-4.512h-1.994l.19-1.616h1.615zm25.306-15.533V92.517h2.167v6.71h8.447v-6.71h2.167v16.328h-2.167v-7.689h-8.447v7.69zm2.72 2.185h7.268l-2.661 25.08-.95 1.473-.997-1.474z"/></svg>
